X:1
T:Lodsworth, 88.88.88
T:Lodsworth, 88.88.88
T:English Traditional melody
T:Public Domain Courtesy of the Cyber Hymnal™
C:English Traditional melody
Z:Public Domain
Z:Courtesy of the Cyber Hymnal™
%%score ( 1 2 ) ( 3 4 )
L:1/8
M:4/4
K:Eb
V:1 treble 
V:2 treble 
V:3 bass 
V:4 bass 
V:1
 E2 | [EG]2 [B,E]2 [EA]2 [Ec]2 | (B2 z2 [DF]2) x4 | E6 E2 | [DG]2 [CE]2 [CA]2 [Dc]2 | %5
 (B2 G4) (FE) x2 | [DF]6 [DF]2 | [EG]2 (FE) [EG]2 ([DF][CE]) | [EG]2 [FB]2 !fermata![EBe]2 [Ec]2 | %9
 [DB]2 [DG]2 (EG) ([GB][FA]) | [EG]4 [DF]4 | E6 [B,E]2 | [EG]2 (FE) [EG]2 ([DF][CE]) | %13
 [EG]2 [FB]2 !fermata![EBe]2 [Ec]2 | [DB]2 [DG]2 (EG) ([GB][FA]) | [EG]4 [DF]4 | E6 |] %17
V:2
 E2 | x8 | D4 (G4 C2) | E6 E2 | x8 | E6 D2 x2 | x8 | x2 B,2 x4 | x8 | x4 E2 x2 | x8 | E6 x2 | %12
 x2 B,2 x4 | x8 | x4 E2 x2 | x8 | E6 |] %17
V:3
 [E,G,]2 | [E,B,]2 [E,G,]2 [C,A,]2 [A,,A,]2 | B,6 [B,,A,]2 x2 | [C,G,]6 [C,G,]2 | %4
 [B,,G,]2 [C,G,]2 [A,,A,]2 [F,,A,]2 | B,6 z2 =A,2 | [B,,B,]6 [B,,B,]2 | %7
 [E,B,]2 (A,G,) [C,C]2 [C,G,]2 | [B,,B,]2 [A,,D]2 !fermata![G,,E]2 [A,,E,]2 | %9
 [B,,G,]2 [B,,B,]2 [C,G,]2 [A,,C]2 | [B,,B,]4 [B,,A,]4 | [E,G,]6 [E,G,]2 | %12
 [E,B,]2 (A,G,) [C,C]2 [C,G,]2 | [B,,B,]2 (DC) !fermata![G,,B,]2 [A,,E,]2 | %14
 [B,,G,]2 [B,,B,]2 [C,G,]2 [A,,C]2 | [B,,B,]4 [B,,A,]4 | [E,G,]6 |] %17
V:4
 x2 | x8 | (G,,4 A,,2) x4 | x8 | x8 | G,,4 C,4 x2 | x8 | x2 E,2 x4 | x8 | x8 | x8 | x8 | %12
 x2 E,2 x4 | x2 A,,2 x4 | x8 | x8 | x6 |] %17

